Sources/FrostedUI/Resources/Icons.xcassets/pencil24.imageset/pencil-24.svg

<svg width="24" height="24" viewBox="0 0 24 24" fill="none" xmlns="http://www.w3.org/2000/svg" data-fui-icon="true">
  <path
    d="M17.8127 1C19.0118 1.00008 20.162 1.47643 21.01 2.32422L21.676 2.99023C22.5238 3.83826 23.0002 4.98838 23.0002 6.1875C23.0002 7.38663 22.5238 8.53675 21.676 9.38477L9.28052 21.7803C9.16593 21.8948 9.01707 21.9691 8.85669 21.9922L1.85669 22.9922C1.62307 23.0256 1.38689 22.9471 1.21997 22.7803C1.05305 22.6133 0.974672 22.3773 1.00806 22.1436L2.00806 15.1436L2.03442 15.0264C2.0704 14.9112 2.13384 14.8059 2.21997 14.7197L14.6145 2.32422C15.4626 1.47621 16.6134 1 17.8127 1ZM3.4563 15.6035L2.63306 21.3662L8.39575 20.543L17.4397 11.5L12.5002 6.56055L3.4563 15.6035ZM17.8127 2.5C17.0114 2.5 16.2428 2.81832 15.676 3.38477L13.5608 5.5L18.5002 10.4395L20.6155 8.32422C21.182 7.75751 21.5002 6.9888 21.5002 6.1875C21.5002 5.3862 21.1819 4.6175 20.6155 4.05078L19.9495 3.38477C19.3828 2.81828 18.614 2.50008 17.8127 2.5Z"
    fill="currentColor"
  />
</svg>

<svg xmlns="http://www.w3.org/2000/svg" width="24" height="24" fill="none" data-fui-icon="true" viewBox="0 0 24 24"><path fill="currentColor" d="M17.813 1c1.199 0 2.349.476 3.197 1.324l.666.666a4.52 4.52 0 0 1 0 6.395L9.281 21.78a.75.75 0 0 1-.424.212l-7 1a.75.75 0 0 1-.849-.848l1-7 .026-.118a.75.75 0 0 1 .186-.306L14.614 2.324A4.52 4.52 0 0 1 17.813 1M3.456 15.604l-.823 5.762 5.763-.823L17.44 11.5 12.5 6.56zM17.813 2.5c-.802 0-1.57.318-2.137.885L13.561 5.5l4.94 4.94 2.114-2.116a3.02 3.02 0 0 0 0-4.273l-.665-.666a3.02 3.02 0 0 0-2.137-.885"/></svg>
